;FLAVOR:Marlin
;TIME:1726
;Filament used: 0.39531m
;Layer height: 0.1
;MINX:96.203
;MINY:96.203
;MINZ:0.36
;MAXX:123.794
;MAXY:123.797
;MAXZ:10.31
;Generated with Cura_SteamEngine 4.6.1
M140 S60
M105
M190 S60
M104 S200
M105
M109 S200
M82 ;absolute extrusion mode
;Basic settings: Layer height: 0.1 Walls: 2 Fill: {fill_density}
;Print time: 00:28:47
;Filament used: [0.4]m [1.179032021484375]g
;Filament cost: [0.0]
;M190 S60 ;Uncomment to add your own bed temperature line
;M109 S200 ;Uncomment to add your own temperature line
G21 ;metric values
G90 ;absolute positioning
M82 ;set extruder to absolute mode
M107 ;start with the fan off
G28 X0 Y0 ;move X/Y to min endstops
G28
G29
G1 Z15.0 ;move the platform down 15mm
G0 X-2 Y2 Z10
G0 X-2 Y2 Z1
G92 E0 ;zero the extruded length
G1 F200 E25 ;extrude 3mm of feed stock
G92 E0 ;zero the extruded length again
G0 X-2 Y2 Z2
G0 X5 Y5 Z2
G0 X5 Y5 Z10
G1 F75
;Put printing message on LCD screen
M117 Printing...
G92 E0
G92 E0
G1 F1500 E-6.5
;LAYER_COUNT:88
;LAYER:-8
M107
M204 S1000
G0 F4500 X100.324 Y100.448 Z0.36
;TYPE:SUPPORT-INTERFACE
G1 F1500 E0
G1 F787.5 X100.629 Y100.149 E0.05114
G1 X100.922 Y99.878 E0.09893
G1 X101.279 Y99.567 E0.15562
G1 X101.554 Y99.343 E0.19809
G1 X101.915 Y99.066 E0.25257
G1 X102.25 Y98.827 E0.30185
G1 X102.699 Y98.527 E0.3665
G1 X103.02 Y98.33 E0.4116
G1 X103.45 Y98.083 E0.47098
G1 X103.767 Y97.914 E0.51399
G1 X104.226 Y97.689 E0.5752
G1 X104.525 Y97.554 E0.61448
G1 X104.989 Y97.362 E0.6746
G1 X105.346 Y97.225 E0.72039
G1 X105.824 Y97.061 E0.7809
G1 X106.154 Y96.959 E0.82226
G1 X106.672 Y96.817 E0.88657
G1 X106.998 Y96.739 E0.9267
G1 X107.429 Y96.648 E0.97945
G1 X107.825 Y96.578 E1.0276
G1 X108.338 Y96.504 E1.08966
G1 X108.71 Y96.464 E1.13446
G1 X109.207 Y96.426 E1.19414
G1 X109.591 Y96.41 E1.24016
G1 X110.089 Y96.403 E1.29979
G1 X110.416 Y96.409 E1.33895
G1 X110.894 Y96.431 E1.39625
G1 X111.289 Y96.464 E1.44371
G1 X111.775 Y96.519 E1.50227
G1 X112.145 Y96.573 E1.54705
G1 X112.647 Y96.661 E1.60807
G1 X113.05 Y96.749 E1.65746
G1 X113.456 Y96.849 E1.70753
G1 X113.754 Y96.929 E1.74447
G1 X114.28 Y97.091 E1.81037
G1 X114.649 Y97.221 E1.85722
G1 X115.12 Y97.402 E1.91763
G1 X115.467 Y97.549 E1.96276
G1 X115.905 Y97.751 E2.02051
G1 X116.216 Y97.905 E2.06206
G1 X116.642 Y98.133 E2.11992
G1 X117.007 Y98.346 E2.17052
G1 X117.432 Y98.611 E2.23049
G1 X117.708 Y98.796 E2.27027
G1 X118.139 Y99.107 E2.33391
G1 X118.406 Y99.312 E2.37422
G1 X118.797 Y99.632 E2.43471
G1 X119.069 Y99.869 E2.47791
G1 X119.401 Y100.175 E2.53197
G1 X119.708 Y100.48 E2.58379
G1 X120.034 Y100.823 E2.64045
G1 X120.233 Y101.045 E2.67615
G1 X120.586 Y101.466 E2.74193
G1 X120.795 Y101.731 E2.78234
G1 X121.086 Y102.125 E2.84099
G1 X121.306 Y102.446 E2.88759
G1 X121.583 Y102.877 E2.94893
G1 X121.785 Y103.22 E2.9966
G1 X122.005 Y103.615 E3.05073
G1 X122.15 Y103.894 E3.08838
G1 X122.392 Y104.4 E3.15554
G1 X122.552 Y104.772 E3.20403
G1 X122.721 Y105.199 E3.25901
G1 X122.85 Y105.558 E3.30469
G1 X122.979 Y105.95 E3.3541
G1 X123.084 Y106.302 E3.39809
G1 X123.269 Y107.032 E3.48826
G1 X123.304 Y107.195 E3.50822
G1 X123.4 Y107.697 E3.56941
G1 X123.453 Y108.029 E3.60967
G1 X123.523 Y108.592 E3.6776
G1 X123.553 Y108.918 E3.7168
G1 X123.581 Y109.335 E3.76684
G1 X123.594 Y109.69 E3.80938
G1 X123.594 Y110.238 E3.87499
G1 X123.583 Y110.612 E3.91979
G1 X123.555 Y111.093 E3.97749
G1 X123.524 Y111.427 E4.01765
G1 X123.453 Y111.981 E4.08453
G1 X123.389 Y112.372 E4.13197
G1 X123.312 Y112.777 E4.18133
G1 X123.225 Y113.162 E4.22859
G1 X123.096 Y113.662 E4.29042
G1 X122.976 Y114.064 E4.34065
G1 X122.852 Y114.445 E4.38862
G1 X122.705 Y114.845 E4.43965
G1 X122.553 Y115.227 E4.48888
G1 X122.399 Y115.584 E4.53543
G1 X122.166 Y116.074 E4.6004
G1 X122.015 Y116.368 E4.63997
G1 X121.738 Y116.864 E4.708
G1 X121.552 Y117.171 E4.75097
G1 X121.299 Y117.565 E4.80704
G1 X121.113 Y117.837 E4.84649
G1 X120.805 Y118.256 E4.90876
G1 X120.566 Y118.558 E4.95487
G1 X120.268 Y118.914 E5.01046
G1 X119.975 Y119.239 E5.06286
G1 X119.647 Y119.58 E5.11951
G1 X119.396 Y119.827 E5.16168
G1 X119.072 Y120.127 E5.21455
G1 X118.778 Y120.384 E5.2613
G1 X118.398 Y120.694 E5.32002
G1 X118.06 Y120.949 E5.37072
G1 X117.705 Y121.202 E5.42292
G1 X117.42 Y121.393 E5.464
G1 X117.004 Y121.654 E5.5228
G1 X116.644 Y121.863 E5.57264
G1 X116.203 Y122.101 E5.63264
G1 X115.883 Y122.259 E5.67537
G1 X115.405 Y122.477 E5.73828
G1 X115.046 Y122.626 E5.78482
G1 X114.582 Y122.802 E5.84424
G1 X114.238 Y122.918 E5.88771
G1 X113.806 Y123.053 E5.9419
G1 X113.466 Y123.148 E5.98417
G1 X112.987 Y123.264 E6.04318
G1 X112.57 Y123.351 E6.09419
G1 X112.079 Y123.437 E6.15387
G1 X111.707 Y123.489 E6.19885
G1 X111.224 Y123.543 E6.25704
G1 X110.88 Y123.57 E6.29836
G1 X110.33 Y123.593 E6.36427
G1 X109.98 Y123.597 E6.40618
G1 X109.541 Y123.589 E6.45875
G1 X109.139 Y123.569 E6.50695
G1 X108.622 Y123.526 E6.56907
G1 X108.26 Y123.485 E6.61269
G1 X107.828 Y123.422 E6.66496
G1 X107.413 Y123.348 E6.71544
G1 X106.926 Y123.246 E6.77501
G1 X106.619 Y123.171 E6.81285
G1 X106.102 Y123.029 E6.87705
G1 X105.783 Y122.928 E6.91711
G1 X105.349 Y122.778 E6.9721
G1 X104.976 Y122.636 E7.01988
G1 X104.502 Y122.436 E7.08148
G1 X104.172 Y122.285 E7.12494
G1 X103.707 Y122.053 E7.18716
G1 X103.359 Y121.865 E7.23452
G1 X102.96 Y121.633 E7.28978
G1 X102.648 Y121.439 E7.33377
G1 X102.223 Y121.154 E7.39505
G1 X101.941 Y120.952 E7.43658
G1 X101.546 Y120.65 E7.49612
G1 X101.279 Y120.433 E7.53731
G1 X100.926 Y120.127 E7.59325
G1 X100.633 Y119.857 E7.64096
G1 X100.289 Y119.519 E7.6987
G1 X99.986 Y119.198 E7.75155
G1 X99.689 Y118.866 E7.80489
G1 X99.412 Y118.531 E7.85694
G1 X99.142 Y118.183 E7.90968
G1 X98.961 Y117.938 E7.94615
G1 X98.665 Y117.51 E8.00846
G1 X98.454 Y117.182 E8.05516
G1 X98.187 Y116.733 E8.11771
G1 X98.022 Y116.435 E8.15849
G1 X97.786 Y115.973 E8.22061
G1 X97.64 Y115.665 E8.26142
G1 X97.423 Y115.166 E8.32658
G1 X97.291 Y114.83 E8.3698
G1 X97.123 Y114.366 E8.42889
G1 X97.033 Y114.093 E8.46331
G1 X96.872 Y113.542 E8.53204
G1 X96.782 Y113.187 E8.57589
G1 X96.678 Y112.722 E8.63295
G1 X96.617 Y112.408 E8.67125
G1 X96.529 Y111.853 E8.73853
G1 X96.487 Y111.515 E8.77931
G1 X96.442 Y111.019 E8.83895
G1 X96.42 Y110.669 E8.88094
G1 X96.404 Y110.214 E8.93545
G1 X96.404 Y109.825 E8.98203
G1 X96.422 Y109.277 E9.04768
G1 X96.444 Y108.926 E9.08979
G1 X96.482 Y108.52 E9.13861
G1 X96.531 Y108.129 E9.1858
G1 X96.62 Y107.573 E9.25322
G1 X96.693 Y107.206 E9.29802
G1 X96.805 Y106.712 E9.35867
G1 X96.888 Y106.395 E9.39791
G1 X97.034 Y105.9 E9.4597
G1 X97.134 Y105.596 E9.49802
G1 X97.289 Y105.169 E9.55241
G1 X97.447 Y104.774 E9.60335
G1 X97.665 Y104.278 E9.66822
G1 X97.816 Y103.962 E9.71016
G1 X98.027 Y103.553 E9.76526
G1 X98.222 Y103.207 E9.81282
G1 X98.441 Y102.839 E9.86409
G1 X98.662 Y102.494 E9.91315
G1 X98.979 Y102.036 E9.97985
G1 X99.15 Y101.803 E10.01445
G1 X99.439 Y101.436 E10.07038
G1 X99.668 Y101.16 E10.11333
G1 X100.085 Y100.695 E10.18811
G1 X100.324 Y100.448 E10.22927
G0 F4500 X100.8 Y99.99
G1 F787.5 X100.8 Y120.01 E12.62639
G1 F1500 E6.12639
G1 F300 Z0.86
G0 F4500 X102.4 Y121.272 Z0.86
G1 F300 Z0.36
G1 F1500 E12.62639
G1 F787.5 X102.4 Y98.726 E15.32597
G1 F1500 E8.82597
G1 F300 Z0.86
G0 F4500 X104 Y97.799 Z0.86
G1 F300 Z0.36
G1 F1500 E15.32597
G1 F787.5 X104 Y122.199 E18.24754
G1 F1500 E11.74754
G1 F300 Z0.86
G0 F4500 X105.6 Y122.864 Z0.86
G1 F300 Z0.36
G1 F1500 E18.24754
G1 F787.5 X105.6 Y97.137 E21.328
G1 F1500 E14.828
G1 F300 Z0.86
G0 F4500 X107.2 Y96.696 Z0.86
G1 F300 Z0.36
G1 F1500 E21.328
G1 F787.5 X107.2 Y123.303 E24.51383
G1 F1500 E18.01383
G1 F300 Z0.86
G0 F4500 X108.8 Y123.54 Z0.86
G1 F300 Z0.36
G1 F1500 E24.51383
G1 F787.5 X108.8 Y96.457 E27.75665
G1 F1500 E21.25665
G1 F300 Z0.86
G0 F4500 X110.4 Y96.409 Z0.86
G1 F300 Z0.36
G1 F1500 E27.75665
G1 F787.5 X110.4 Y123.591 E31.01133
G1 F1500 E24.51133
G1 F300 Z0.86
G0 F4500 X112 Y123.449 Z0.86
G1 F300 Z0.36
G1 F1500 E31.01133
G1 F787.5 X112 Y96.552 E34.23188
G1 F1500 E27.73188
G1 F300 Z0.86
G0 F4500 X113.6 Y96.888 Z0.86
G1 F300 Z0.36
G1 F1500 E34.23188
G1 F787.5 X113.6 Y123.111 E37.37173
G1 F1500 E30.87173
G1 F300 Z0.86
G0 F4500 X115.2 Y122.563 Z0.86
G1 F300 Z0.36
G1 F1500 E37.37173
G1 F787.5 X115.2 Y97.436 E40.38035
G1 F1500 E33.88035
G1 F300 Z0.86
G0 F4500 X116.8 Y98.226 Z0.86
G1 F300 Z0.36
G1 F1500 E40.38035
G1 F787.5 X116.8 Y121.773 E43.19978
G1 F1500 E36.69978
G1 F300 Z0.86
G0 F4500 X118.4 Y120.693 Z0.86
G1 F300 Z0.36
G1 F1500 E43.19978
G1 F787.5 X118.4 Y99.308 E45.76035
G1 F1500 E39.26035
G1 F300 Z0.86
G0 F4500 X120 Y100.788 Z0.86
G1 F300 Z0.36
G1 F1500 E45.76035
G1 F787.5 X120 Y119.212 E47.96637
G1 F1500 E41.46637
G1 F300 Z0.86
G0 F4500 X121.6 Y117.092 Z0.86
G1 F300 Z0.36
G1 F1500 E47.96637
G1 F787.5 X121.6 Y102.906 E49.66496
G1 F1500 E43.16496
G1 F300 Z0.86
G0 F4500 X123.2 Y106.76 Z0.86
G1 F300 Z0.36
G1 F1500 E49.66496
G1 F787.5 X123.2 Y113.259 E50.44312
G1 F1500 E43.94312
G1 F300 Z0.86
G0 F4500 X99.2 Y118.257 Z0.86
G1 F300 Z0.36
G1 F1500 E50.44312
G1 F787.5 X99.2 Y101.739 E52.42093
G1 F1500 E45.92093
G1 F300 Z0.86
G0 F4500 X97.6 Y104.425 Z0.86
G1 F300 Z0.36
G1 F1500 E52.42093
G1 F787.5 X97.6 Y115.573 E53.75575
G0 F300 X97.6 Y115.573 Z0.51
G0 F4500 X97.993 Y116.378
;TIME_ELAPSED:48.423929
;LAYER:-7
M140 S60
;TYPE:SUPPORT
G1 F787.5 X103.62 Y122.005 E54.15277
G1 X103.359 Y121.864 E54.16757
G1 X102.96 Y121.632 E54.1906
G1 X102.647 Y121.438 E54.20897
G1 X102.222 Y121.153 E54.2345
G1 X101.941 Y120.951 E54.25176
G1 X101.546 Y120.649 E54.27657
G1 X101.279 Y120.432 E54.29373
G1 X100.926 Y120.126 E54.31704
G1 X100.632 Y119.856 E54.33696
G1 X100.288 Y119.518 E54.36102
G1 X99.986 Y119.196 E54.38304
G1 X99.688 Y118.865 E54.40526
G1 X99.411 Y118.53 E54.42695
G1 X99.141 Y118.182 E54.44892
G1 X98.961 Y117.936 E54.46413
G1 X98.664 Y117.509 E54.49008
G1 X98.454 Y117.181 E54.50951
G1 X98.186 Y116.732 E54.5356
G1 X98.021 Y116.433 E54.55264
G1 F1500 E48.05264
G1 F300 Z1.01
G0 F4500 X103.62 Y122.005 Z1.01
G1 F300 Z0.51
G1 F1500 E54.55264
G1 F787.5 X103.707 Y122.052 E54.55757
G1 X104.172 Y122.284 E54.58349
G1 X104.501 Y122.435 E54.60155
G1 X104.975 Y122.634 E54.6272
G1 X105.349 Y122.777 E54.64718
G1 X105.783 Y122.927 E54.67009
G1 X106.037 Y123.008 E54.68339
G1 X96.995 Y113.966 E55.32135
G1 X96.872 Y113.541 E55.34342
G1 X96.781 Y113.186 E55.36171
G1 X96.678 Y112.721 E55.38547
G1 X96.616 Y112.406 E55.40149
G1 X96.573 Y112.129 E55.41547
G1 X107.87 Y123.426 E56.21254
G1 X108.26 Y123.484 E56.23221
G1 X108.622 Y123.525 E56.25038
G1 X109.139 Y123.568 E56.27626
G1 X109.441 Y123.583 E56.29135
G1 X96.416 Y110.558 E57.21033
G1 X96.403 Y110.213 E57.22756
G1 X96.403 Y109.824 E57.24697
G1 X96.422 Y109.276 E57.27432
G1 X96.429 Y109.157 E57.28027
G1 X110.843 Y123.571 E58.29725
G1 X110.88 Y123.569 E58.2991
G1 X111.224 Y123.542 E58.31632
G1 X111.706 Y123.488 E58.34052
G1 X112.078 Y123.436 E58.35926
G1 X112.115 Y123.429 E58.36113
G1 X96.569 Y107.883 E59.45799
G1 X96.62 Y107.572 E59.47371
G1 X96.693 Y107.205 E59.49238
G1 X96.805 Y106.711 E59.51765
G1 X96.806 Y106.705 E59.51795
G1 X113.289 Y123.189 E60.68095
G1 X113.465 Y123.147 E60.68998
G1 X113.806 Y123.052 E60.70764
G1 X114.238 Y122.917 E60.73022
G1 X114.382 Y122.867 E60.73783
G1 X97.127 Y105.612 E61.95526
G1 X97.133 Y105.595 E61.95616
G1 X97.288 Y105.168 E61.97882
G1 X97.447 Y104.772 E62.00011
G1 X97.524 Y104.595 E62.00974
G1 X115.404 Y122.475 E63.27127
G1 X115.882 Y122.258 E63.29746
G1 X116.203 Y122.1 E63.31531
G1 X116.358 Y122.015 E63.32413
G1 X97.981 Y103.638 E64.62073
G1 X98.026 Y103.552 E64.62557
G1 X98.222 Y103.205 E64.64545
G1 X98.441 Y102.838 E64.66678
G1 X98.501 Y102.744 E64.67234
G1 X117.253 Y121.496 E65.99539
G1 X117.42 Y121.392 E66.00521
G1 X117.704 Y121.2 E66.02231
G1 X118.059 Y120.947 E66.04406
G1 X118.093 Y120.921 E66.0462
G1 X99.075 Y101.903 E67.38802
G1 X99.15 Y101.802 E67.3943
G1 X99.439 Y101.435 E67.4176
G1 X99.667 Y101.159 E67.43546
G1 X99.704 Y101.118 E67.43822
G1 X118.88 Y120.294 E68.79119
G1 X119.072 Y120.126 E68.80391
G1 X119.396 Y119.826 E68.82594
G1 X119.612 Y119.612 E68.84111
G1 X100.386 Y100.386 E70.19761
G1 X100.628 Y100.148 E70.21455
G1 X100.921 Y99.878 E70.23442
G1 X101.119 Y99.705 E70.24754
G1 X120.295 Y118.881 E71.60051
G1 X120.565 Y118.558 E71.62152
G1 X120.804 Y118.255 E71.64077
G1 X120.923 Y118.094 E71.65076
G1 X101.903 Y99.075 E72.99269
G1 X101.914 Y99.066 E72.99339
G1 X102.249 Y98.826 E73.01395
G1 X102.698 Y98.526 E73.04089
G1 X102.742 Y98.499 E73.04347
G1 X121.497 Y117.255 E74.36677
G1 X121.55 Y117.171 E74.37173
G1 X121.737 Y116.864 E74.38966
G1 X122.014 Y116.367 E74.41805
G1 X122.018 Y116.361 E74.41841
G1 X103.639 Y97.982 E75.71515
G1 X103.766 Y97.914 E75.72233
G1 X104.225 Y97.688 E75.74786
G1 X104.524 Y97.553 E75.76422
G1 X104.595 Y97.524 E75.76805
G1 X122.475 Y115.404 E77.02958
G1 X122.552 Y115.226 E77.03926
G1 X122.704 Y114.845 E77.05972
G1 X122.851 Y114.445 E77.08098
G1 X122.871 Y114.385 E77.08414
G1 X105.617 Y97.132 E78.30147
G1 X105.823 Y97.061 E78.31234
G1 X106.152 Y96.959 E78.32952
G1 X106.671 Y96.817 E78.35637
G1 X106.708 Y96.808 E78.35827
G1 X123.19 Y113.291 E79.5212
G1 X123.223 Y113.161 E79.52789
G1 X123.311 Y112.777 E79.54754
G1 X123.388 Y112.371 E79.56816
G1 X123.43 Y112.116 E79.58105
G1 X107.883 Y96.569 E80.67798
G1 X108.337 Y96.504 E80.70086
G1 X108.709 Y96.463 E80.71953
G1 X109.158 Y96.43 E80.74199
G1 X123.569 Y110.841 E81.75876
G1 X123.581 Y110.612 E81.7702
G1 X123.593 Y110.237 E81.78892
G1 X123.593 Y109.689 E81.81626
G1 X123.584 Y109.442 E81.82859
G1 X110.558 Y96.416 E82.74765
G1 X110.892 Y96.43 E82.76433
G1 X111.288 Y96.464 E82.78416
G1 X111.774 Y96.519 E82.80856
G1 X112.126 Y96.57 E82.8263
G1 X123.427 Y107.871 E83.62365
G1 X123.399 Y107.697 E83.63244
G1 X123.303 Y107.195 E83.65794
G1 X123.268 Y107.031 E83.66631
G1 X123.083 Y106.302 E83.70383
G1 X123.003 Y106.032 E83.71788
G1 X113.964 Y96.993 E84.35563
G1 X114.279 Y97.09 E84.37207
G1 X114.648 Y97.22 E84.39159
G1 X115.119 Y97.401 E84.41676
G1 X115.466 Y97.549 E84.43558
G1 X115.903 Y97.751 E84.4596
G1 X116.215 Y97.905 E84.47696
G1 X116.376 Y97.991 E84.48607
G1 X122.009 Y103.624 E84.88351
G0 F4500 X122.004 Y103.615
G1 F787.5 X121.784 Y103.219 E84.90611
G1 X121.582 Y102.876 E84.92597
G1 X121.305 Y102.445 E84.95153
G1 X121.085 Y102.125 E84.9709
G1 X120.794 Y101.73 E84.99538
G1 X120.585 Y101.466 E85.01218
G1 X120.232 Y101.045 E85.03959
G1 X120.033 Y100.822 E85.0545
G1 X119.707 Y100.479 E85.07811
G1 X119.399 Y100.175 E85.0997
G1 X119.068 Y99.868 E85.12222
G1 X118.796 Y99.632 E85.14019
G1 X118.405 Y99.311 E85.16542
G1 X118.138 Y99.107 E85.18219
G1 X117.707 Y98.796 E85.2087
G1 X117.431 Y98.61 E85.22531
G1 X117.006 Y98.345 E85.2503
G1 X116.64 Y98.132 E85.27142
G1 X116.376 Y97.991 E85.28636
G1 F1500 E78.78636
G1 F300 Z1.01
G0 F4500 X112.316 Y96.4 Z1.01
;TIME_ELAPSED:97.800448
;LAYER:-6
G0 X112.316 Y96.4 Z1.11
;TYPE:SUPPORT-INTERFACE
G1 F300 Z0.61
G1 F1500 E85.28636
G1 F1050 X107.684 Y96.4 E85.36339
G1 X107.798 Y96.38 E85.36531
G1 X108.318 Y96.306 E85.37405
G1 X108.698 Y96.264 E85.3804
G1 X109.198 Y96.227 E85.38874
G1 X109.585 Y96.21 E85.39518
G1 X110.092 Y96.203 E85.40362
G1 X110.425 Y96.209 E85.40915
G1 X110.903 Y96.231 E85.41711
G1 X111.311 Y96.265 E85.42392
G1 X111.798 Y96.32 E85.43207
G1 X112.18 Y96.376 E85.43849
G1 F1500 E78.93849
G1 F300 Z1.11
G0 F4500 X107.684 Y96.4 Z1.11
G1 F300 Z0.61
G1 F1500 E85.43849
G1 F1050 X107.399 Y96.45 E85.4433
G1 X106.949 Y96.545 E85.45095
G1 X106.628 Y96.622 E85.45644
G1 X106.095 Y96.768 E85.46563
G1 X105.992 Y96.8 E85.46743
G1 X114.015 Y96.8 E85.60085
G1 X114.312 Y96.892 E85.60602
G1 X114.679 Y97.019 E85.61248
G1 X115.151 Y97.2 E85.62088
G1 X104.857 Y97.2 E85.79207
G1 X104.415 Y97.384 E85.80004
G1 X104.147 Y97.506 E85.80493
G1 X103.955 Y97.6 E85.80849
G1 X116.052 Y97.6 E86.00966
G1 X116.303 Y97.724 E86.01432
G1 X116.741 Y97.959 E86.02258
G1 X116.812 Y98 E86.02395
G1 X103.193 Y98 E86.25043
G1 X102.92 Y98.156 E86.25566
G1 X102.554 Y98.382 E86.26281
G1 X102.528 Y98.4 E86.26334
G1 X117.473 Y98.4 E86.51188
G1 X117.543 Y98.444 E86.51325
G1 X117.817 Y98.628 E86.51874
G1 X118.056 Y98.8 E86.52364
G1 X101.944 Y98.8 E86.79158
G1 X101.804 Y98.9 E86.79444
G1 X101.423 Y99.192 E86.80243
